src/cmd/sc_insertcellsdown.svg

<svg viewBox="0 0 16 16" xmlns="http://www.w3.org/2000/svg"><path d="m2 2v1 6h1v-2h3v2h1v-2h2v2h1v-2h3v2h1v-6-1zm1 1h3v3h-3zm4 0h2v3h-2zm3 0h3v3h-3zm0 7 2 4 2-4z" fill="#232629"/><path d="m2 9v1h1 .28125l-.28125.28125-1 1v1.4375l1-1 1.71875-1.71875h1.28125 1 .28125l-.28125.28125-1 1-1.71875 1.71875h-2.28125v1h1.28125 1.4375 2.5625 1.4375.28125v-.28125-1.4375l-.71875.71875h-2.5625l.28125-.28125 1-1 1.71875-1.71875h.28125v-1h-2-1-1.71875-1.28125z" fill="#762572"/></svg>

<?xml version="1.0" encoding="UTF-8" standalone="no"?>
<svg
   xmlns:dc="http://purl.org/dc/elements/1.1/"
   xmlns:cc="http://creativecommons.org/ns#"
   xmlns:rdf="http://www.w3.org/1999/02/22-rdf-syntax-ns#"
   xmlns:svg="http://www.w3.org/2000/svg"
   xmlns="http://www.w3.org/2000/svg"
   xmlns:sodipodi="http://sodipodi.sourceforge.net/DTD/sodipodi-0.dtd"
   xmlns:inkscape="http://www.inkscape.org/namespaces/inkscape"
   viewBox="0 0 16 16"
   version="1.1"
   id="svg6"
   sodipodi:docname="sc_insertcellsdown.svg"
   inkscape:version="0.92.4 (5da689c313, 2019-01-14)">
  <metadata
     id="metadata12">
    <rdf:RDF>
      <cc:Work
         rdf:about="">
        <dc:format>image/svg+xml</dc:format>
        <dc:type
           rdf:resource="http://purl.org/dc/dcmitype/StillImage" />
      </cc:Work>
    </rdf:RDF>
  </metadata>
  <defs
     id="defs10" />
  <sodipodi:namedview
     pagecolor="#ffffff"
     bordercolor="#666666"
     borderopacity="1"
     objecttolerance="10"
     gridtolerance="10"
     guidetolerance="10"
     inkscape:pageopacity="0"
     inkscape:pageshadow="2"
     inkscape:window-width="1920"
     inkscape:window-height="1011"
     id="namedview8"
     showgrid="true"
     inkscape:zoom="83.4386"
     inkscape:cx="2.6258026"
     inkscape:cy="5.1508122"
     inkscape:window-x="1920"
     inkscape:window-y="32"
     inkscape:window-maximized="1"
     inkscape:current-layer="svg6">
    <inkscape:grid
       type="xygrid"
       id="grid822" />
  </sodipodi:namedview>
  <path
     d="M 5,2 C 3,2 2,2 2,4 V 9 H 3 V 7 H 6 V 9 H 7 V 7 h 2 v 2 h 1 V 7 h 3 v 2 h 1 V 4 C 14,2 13,2 11,2 Z M 3,4 C 3,3 4,3 5,3 H 6 V 6 H 3 Z M 7,3 H 9 V 6 H 7 Z m 3,0 h 1 c 1,0 2,0 2,1 v 2 h -3 z m 0,7 2,4 2,-4 z"
     id="path2"
     inkscape:connector-curvature="0"
     style="fill:#232629"
     sodipodi:nodetypes="cccccccccccccccccccccccccccccccccccccccc" />
  <path
     d="m 2,9 v 1 H 3 3.28125 L 3,10.28125 l -1,1 v 1.4375 l 1,-1 L 4.71875,10 H 6 7 7.28125 L 7,10.28125 l -1,1 L 4.28125,13 H 2 v 1 H 5 7.28125 8.71875 9 v -0.28125 -1.4375 L 8.28125,13 H 5.71875 L 6,12.71875 l 1,-1 L 8.71875,10 H 9 V 9 H 7 6 4.28125 3 Z"
     id="path4"
     inkscape:connector-curvature="0"
     style="fill:#762572"
     sodipodi:nodetypes="ccccccccccccccccccccccccccccccccccc" />
</svg>
